src/svgs/edit.svg

<!-- Generated by IcoMoon.io -->
<svg version="1.1" xmlns="http://www.w3.org/2000/svg" width="24" height="24" viewBox="0 0 24 24">
<path d="M17 0.6l-16 16v6.4h6.4l16-16-6.4-6.4zM6.6 21h-3.6v-3.6l11-11 3.6 3.6-11 11zM19 8.6l-3.6-3.6 1.6-1.6 3.6 3.6-1.6 1.6z"></path>
</svg>

<?xml version="1.0" encoding="utf-8"?>
<!-- Generator: Adobe Illustrator 21.0.2, SVG Export Plug-In . SVG Version: 6.00 Build 0)  -->
<svg version="1.1" id="Layer_1" xmlns="http://www.w3.org/2000/svg" xmlns:xlink="http://www.w3.org/1999/xlink" x="0px" y="0px"
	 viewBox="0 0 24 24" style="enable-background:new 0 0 24 24;" xml:space="preserve">
<path d="M14,3.6L12.6,5L1,16.6V23h6.4L19,11.4l1.4-1.4l3-3L17,0.6L14,3.6z M6.6,21H3v-3.6l11-11l3.6,3.6L6.6,21z M19,8.6L15.4,5
	L17,3.4L20.6,7L19,8.6z"/>
</svg>
